X: 588
T: Doymadım Sana
C: Nevzat Akay
O: Turkey
F: http://compmusic.upf.edu/node/140
N: nihavent--sarki--duyek--doymadim_sana--nevzat_akay
N: makam= nihavent
N: form= sarki
N: usul= duyek = 8/4
M: 8/4
L: 1/16
K: C _B _e  
Q: 1/4=132
%%MIDI tuningsystem comma53
z2 d2 c2 B2 cd B2 cd z2  | z2 AB c/d/c/d/ BA G8  | \
w:  Doy *  ma dım  *  *  sa na   |  ağ *  *  *  *  *  la *  rım   | 
GA Bc dB2A G2 ^F2 G4  | 
w:  SAZ  | 
z2 c4 d2 d4 d3/2c/ B2  | ff3/2e/d gg f/e/d/e/ d8  | \
w:  âh  e de rek   |  ya *  na  *  ya *  *  *  *  *  na    | 
z2 b14  | b2 a2 g2 f2 a8  | 
w:  SAZ  |   | 
z2 d2 e2 f2 g4 fe de  | d6 dc BA Bc d4  | \
w:   |   | 
z2 b2 a2 g2 f4 ag a2  | 
w:  Geç  *  *  bul dum   | 
z2 b2 a2 g2 fg ed gf g2  | z2 _a2 g2 f2 e3d cz2B  | \
w:  ça buk  kay bet *  *  *  tim   |  hic *  rân_ ol *  du  ha  | 
c2 d2 f3/2e/ de d8  | 
w:  yat  *  ba *  *  *  na    | 
z2 e2 d2 c2 B2 A2 Bz2c  | d4 cB AB G8  | \
w:  hic *  rân_ ol *  du  ha  |  yat  ba *  *  *  na    | 
z2 b14  | b2 a2 g2 f2 a8  | 
w:  SAZ  |   | 
z2 d2 e2 f2 g4 fe de  | d6 dc BA Bc d4  | \
w:   |   | 
z2 b2 a2 g2 f4 ag a2  | 
w:  Geç  *  *  bul dum   | 
z2 b2 a2 g2 fg ed gf g2  | z2 _a2 g2 f2 e3d cz2B  | \
w:  ça buk  kay bet *  *  *  tim   |  hic *  rân_ ol *  du  ha  | 
c2 d2 f3/2e/ de d8  | 
w:  yat  *  ba *  *  *  na    | 
z2 e2 d2 c2 B2 A2 Bz2c  | d4 cB AB G8  | \
w:  hic *  rân_ ol *  du  ha  |  yat  ba *  *  *  na    | 
c4 dd de f4 fe dc  | 
w:  SAZ  | 
f6 ab a_7/8g f_1/4e f4  | _1/4e2 f14  | \
w:   |  Ah   | 
z2 e4 f2 _7/8g/a/g/f/ g/a/g/f/ g/a/g/f/ g2  | 
w:  al dı  fe *  lek   | 
z2 f4 _7/8g2 a2 a6  | z4 a2 b2 a2 _7/8g2 (3gfg ab  | \
w:  ça re si  yok   |  a cı sın  *  Al  | 
a_7/8g f_1/4e f2 ga ag fe f4  | 
w:  lah  *  *  *  *  ba *  na    | 
z2 b14  | b2 a2 g2 f2 a8  | z2 d2 e2 f2 g4 fe de  | \
w:  SAZ  |   |   | 
d6 dc BA Bc d4  | 
w:   | 
z2 b2 a2 g2 f4 ag a2  | z2 b2 a2 g2 fg ed gf g2  | \
w:  Geç  *  *  bul dum   |  ça buk  kay bet *  *  *  tim   | 
z2 _a2 g2 f2 e3d cz2B  | 
w:  hic *  rân_ ol *  du  ha  | 
c2 d2 f3/2e/ de d8  | z2 e2 d2 c2 B2 A2 Bz2c  | \
w:  yat  *  ba *  *  *  na    |  hic *  rân_ ol *  du  ha  | 
d4 cB AB G8  | 
w:  yat  ba *  *  *  na    | 
|


